svgs/metadata_remover.svg

<svg xmlns="http://www.w3.org/2000/svg" width="192" height="192"><path fill="none" stroke="#000" stroke-width="12" d="M54 170h92c8.84 0 16-7.16 16-16V70c0-8.84-7.16-16-16-16h-16"/><path fill="none" stroke="#000" stroke-width="12" d="M46 22h68a16 16 0 0 1 16 16v116a16 16 0 0 1-16 16H46a16 16 0 0 1-16-16V38a16 16 0 0 1 16-16z"/><path fill="none" stroke="#000" stroke-linecap="round" stroke-width="12" d="m60 76 40 40M100 76l-40 40"/></svg>

<?xml version="1.0" encoding="UTF-8" standalone="no"?><svg xmlns:android="http://schemas.android.com/apk/res/android" height="192" width="192" xmlns="http://www.w3.org/2000/svg">
  <path d="M54,170H146C154.84,170 162,162.84 162,154V70C162,61.16 154.84,54 146,54H130" fill="#000000" fill-opacity="0.0" stroke="#000000" stroke-width="12"/>
  <path d="M46,22L114,22A16,16 0,0 1,130 38L130,154A16,16 0,0 1,114 170L46,170A16,16 0,0 1,30 154L30,38A16,16 0,0 1,46 22z" fill="#000000" fill-opacity="0.0" stroke="#000000" stroke-width="12"/>
  <path d="M60,76L100,116" fill="#000000" fill-opacity="0.0" stroke="#000000" stroke-linecap="round" stroke-width="12"/>
  <path d="M100,76L60,116" fill="#000000" fill-opacity="0.0" stroke="#000000" stroke-linecap="round" stroke-width="12"/>
</svg>
